static/assets/img/icons/theme/cooking/knife-1.svg

<svg height="24" viewBox="0 0 24 24" width="24" xmlns="http://www.w3.org/2000/svg"><g fill="none" fill-rule="evenodd"><path d="m0 0h24v24h-24z" opacity="0"/><g fill="#000"><path d="m5.78248558 14.6464466.70710678.7071068c.39052429.3905243.39052429 1.0236893 0 1.4142136l-2.82842712 2.8284271c-.3905243.3905243-1.02368928.3905243-1.41421357 0l-.70710678-.7071068c-.39052429-.3905243-.39052429-1.0236893 0-1.4142136l2.82842713-2.8284271c.39052429-.3905243 1.02368927-.3905243 1.41421356 0z" opacity=".3"/><path d="m6.48959236 12.5251263 10.60660174-10.60660175 4.9497474 4.94974747c1.1715729 1.17157287 1.1715729 3.07106781 0 4.24264068l-6.363961 6.363961c-1.1715729 1.1715729-3.0710678 1.1715729-4.2426407 0zm10.66726184-5.01040767c.5857865-.58578644.5857865-1.53553391 0-2.12132035-.5857864-.58578644-1.5355339-.58578644-2.1213203 0s-.5857864 1.53553391 0 2.12132035c.5857864.58578643 1.5355339.58578643 2.1213203 0z"/></g></g></svg>

<svg width="24px" height="24px" viewBox="0 0 24 24" version="1.1" xmlns="http://www.w3.org/2000/svg" xmlns:xlink="http://www.w3.org/1999/xlink">
    <title>Icon For Knife#1</title>
    <g stroke="none" stroke-width="1" fill="none" fill-rule="evenodd">
        <rect opacity="0" x="0" y="0" width="24" height="24"></rect>
        <path d="M5.78248558,14.6464466 L6.48959236,15.3535534 C6.88011665,15.7440777 6.88011665,16.3772427 6.48959236,16.767767 L3.66116524,19.5961941 C3.27064094,19.9867184 2.63747596,19.9867184 2.24695167,19.5961941 L1.53984489,18.8890873 C1.1493206,18.498563 1.1493206,17.865398 1.53984489,17.4748737 L4.36827202,14.6464466 C4.75879631,14.2559223 5.39196129,14.2559223 5.78248558,14.6464466 Z" fill="#000000" opacity="0.3"></path>
        <path d="M6.48959236,12.5251263 L17.0961941,1.91852455 L22.0459415,6.86827202 C23.2175144,8.03984489 23.2175144,9.93933983 22.0459415,11.1109127 L15.6819805,17.4748737 C14.5104076,18.6464466 12.6109127,18.6464466 11.4393398,17.4748737 L6.48959236,12.5251263 Z M17.1568542,7.51471863 C17.7426407,6.92893219 17.7426407,5.97918472 17.1568542,5.39339828 C16.5710678,4.80761184 15.6213203,4.80761184 15.0355339,5.39339828 C14.4497475,5.97918472 14.4497475,6.92893219 15.0355339,7.51471863 C15.6213203,8.10050506 16.5710678,8.10050506 17.1568542,7.51471863 Z" fill="#000000"></path>
    </g>
</svg>
